brandFactory_export/3.Masa/Pen drive pendrive _3Masa.svg

<?xml version="1.0" encoding="UTF-8"?>
<svg width="24px" height="24px" viewBox="0 0 24 24" version="1.1" xmlns="http://www.w3.org/2000/svg" xmlns:xlink="http://www.w3.org/1999/xlink">
    <title>3.Masa/Pen drive pendrive _3Masa</title>
    <g id="Symbols" stroke="none" stroke-width="1" fill="none" fill-rule="evenodd">
        <g id="3.Masa/Pen-drive-pendrive-_3Masa" fill="#5CB615" fill-rule="nonzero">
            <path d="M22.1747899,14.610084 L22.1747899,9.14789916 C22.1680672,8.79831933 21.8957983,8.49915966 21.5630252,8.46890756 L19.7445378,8.46890756 L19.7445378,15.292437 L21.5226891,15.292437 C21.8823529,15.2890756 22.1747899,14.9831933 22.1747899,14.610084 L22.1747899,14.610084 Z M21.5058824,6.98991597 C22.6487395,6.98991597 23.6,7.94789916 23.6235294,9.12773109 L23.6235294,14.6067227 C23.6235294,15.7932773 22.6823529,16.7613445 21.5226891,16.7613445 L19.7109244,16.7613445 C19.4857143,17.9176471 18.4840336,18.794958 17.287395,18.794958 L6.40336134,18.794958 C2.26554622,18.6436975 0,16.1932773 0,11.897479 C0,7.59159664 2.26554622,5.14789916 6.37983193,5.01680672 L17.2705882,5.01680672 C18.4504202,5.01680672 19.4386555,5.86722689 19.6840336,6.99663866 L20.497479,6.99663866 L20.497479,6.99327731 L21.5058824,6.99327731 L21.5058824,6.98991597 Z M5.2302521,10.9159664 C4.56134454,10.9159664 4.12773109,11.2689076 4.12773109,12.0285714 C4.12773109,12.394958 4.22857143,12.6638655 4.40672269,12.8487395 C4.60168067,13.0470588 4.88403361,13.1445378 5.2302521,13.1445378 C5.57647059,13.1445378 5.86218487,13.0470588 6.05378151,12.8487395 C6.23193277,12.6638655 6.33279237,12.394958 6.33279237,12.0285714 C6.33613445,11.2689076 5.89915966,10.9159664 5.2302521,10.9159664 L5.2302521,10.9159664 Z" id="Pen-drive-pendrive-_3Masa"></path>
        </g>
    </g>
</svg>

<svg width="24" height="24" viewBox="0 0 24 24" xmlns="http://www.w3.org/2000/svg"><path d="M22.175 14.61V9.148a.696.696 0 00-.612-.68h-1.818v6.824h1.778a.673.673 0 00.652-.682zm-.67-7.62c1.144 0 2.095.958 2.119 2.138v5.479c0 1.186-.942 2.154-2.101 2.154H19.71c-.225 1.157-1.227 2.034-2.424 2.034H6.403C2.266 18.644 0 16.193 0 11.897c0-4.305 2.266-6.75 6.38-6.88h10.89c1.18 0 2.169.85 2.414 1.98h.813v-.004h1.009V6.99zM5.23 10.916c-.669 0-1.102.353-1.102 1.113 0 .366.1.635.279.82.195.198.477.296.823.296s.632-.098.824-.296c.178-.185.279-.454.279-.82.003-.76-.434-1.113-1.103-1.113z" fill="#5CB615" fill-rule="nonzero"/></svg>
